X:1
T:Gabriel's Oboe
T:Gabriel's Oboe
T:Adagio
T:2019
T:2019
T:2019
C:Arr. by Wesley McGrew
Z:Lyrical
Z:2019
%%score 1 2 3 4
L:1/8
Q:1/4=63
M:4/4
K:D
V:1 treble transpose=-2 nm="Clarinetto in B♭" snm="Cl. in B♭"
V:2 treble nm="Violino" snm="V-no"
V:3 alto nm="Viola" snm="V-la"
V:4 bass nm="Fagotto" snm="Fag."
V:1
[K:E]!mp!!<(! B,4 D2 E2!<)! | F2 G2 A2 !fermata!B2 |!mp!"^Fg solo" E4 E2 D2 | G4 E2 DE | F4 E4 | %5
 C2 CB, C4 | A3 B B2 A2"^Vla solo" |!mp! B4 G4 | e4 B4 | B2 A2!<(! A4!<)! | G2 F2 G2 G2 |!f! A,8 | %12
 E4 E4 |!ff! E4 D4 |"^Cl solo" B/c/B/4A/4B/4- B4- B3/2B3/4 | ef/4e/4d/4e/4 d/e/d/c/ cB/B/- B2- | %16
 B3 B ef/e/ de/d/ | c4- cedc | B/A/B/- B6- B/"^Vln solo" |!mp! B,2 B,2 B,2 B,2 | B,2 B,2 B,2 B,2 | %21
 G2 EF G2 A2 | B2 AB c2 B2 | ABAG F4 | F2 F2 B2 AG | A4 B4 |[M:3/4] G2 G2 GF | %27
 G2"_dim." G2 G"^Cl solo"e |[M:3/2] a2 g2 f2- f4 e2 |[M:4/4] e8- |!<(! e8!<)! |] %31
V:2
!mp!!<(! A8!<)! | A4 A2 !fermata!E2 |!mp! F4 G4 | D4 A4 | C4 D2 D2 | G2 GF G4 | E3 E A,2 E2 | %7
!mp! D3 D C3 C | B3 B A4 | A4!<(! D4!<)! | D2 F2 D2 D2 |!f! A2 B4 F2 | E4 F4 |!ff! G4 A4 | %14
!mp! D4 E4 | F4 G4 | E4 D4 | G2 GF G4 | G3 F E3!f! A | feed d3 A | f/e/e/d/ d4 c/d/c/d/ | %21
 B4- BBdg |!<(! gf f4 db!<)! |!fff! b6- ba | a6 gf |!>(! e6 f2!>)! |[M:3/4]!mf! f6- | f4 z2 | %28
[M:3/2]!mp! G2 F2 E4 E4 |[M:4/4] D4 G4 |!<(! A8!<)! |] %31
V:3
!mp!!<(! A,4 B,2 A,2!<)! | B,2 C2 D2 !fermata!C2 |!mp! A,4 A,4 | F4 G,4 | E2 A,2 F4 | D8 | %6
 D3 D C2 z!f! C | FEED D3 A, | F/E/E/D/ D4 C/D/C/D/ | B,4-!<(! B,B,DG!<)! | GF F4 DB |!f! B6- BA | %12
 A8- |!ff! A2 z2 z4 |!mp! F2 FG A4 | B4 A A3 | C2 B,C D2 A,2 | B,2 B,A, B,4 | D4 C4 | D2 F2 E2 E2 | %20
 D2 F2 E2 E2 | D2 D2 D2 D2 |!<(! D2 D2 F2 F2!<)! |!fff! D2 D2 C2 C2 | C2 C2 D2 D2 | %25
!>(! E2 E2 E2 E2!>)! |[M:3/4]!mf! C2 C2 C2 | D2"_dim." D2 D2 |[M:3/2]!mp! B,4 A,4 A,4 | %29
[M:4/4] B,4 D4 |!<(! D8!<)! |] %31
V:4
!mp!!<(! A,,8!<)! | !fermata!A,,8 |!mf! A,/B,/A,/4G,/4 A,4- A,3/2A, | %3
 DE/4D/4C/4D/4 C/D/C/B,/ B,A,/A,/- A,2 | A,3 A, DE/D/ CD/C/ | B,4- B,DCB, | %6
 A,/G,/A,/- A,3- A,/-!mf!A,- A,2 |!mp! F4 D4 | F4 F4 | D4!<(! F3 E!<)! | D2 C2 B,2 B,2 | %11
!f! B,2 G,6 | A,4 A,4 |!ff! A,4 A,4 |!mp! D2 D2 D2 C2 | D4 D4 | G,2 G,2 F,2 F,2 | E,4 E,4 | %18
 E,2 E,2 A,2 A,2 | D4 D4 | D4 A,2 A,2 | G,8 |!<(! D2 C2 B,2 A,2!<)! |!fff! G,4 A,4 | F,4 G,4 | %25
!>(! A,4 A,4!>)! |[M:3/4]!mf! ^A,6 | B,4 A,2 |[M:3/2]!mp! G,4 A,4 A,,4 |[M:4/4] D,8- | %30
!<(! D,8!<)! |] %31

